assets/icons/updater.svg

<?xml version="1.0" encoding="UTF-8"?>
<svg xmlns="http://www.w3.org/2000/svg" id="Layer_1" data-name="Layer 1" viewBox="0 0 24 24" width="512" height="512"><path d="M23,24H1c-.55,0-1-.45-1-1s.45-1,1-1H23c.55,0,1,.45,1,1s-.45,1-1,1Zm-8.23-5.14s6.35-6.75,6.35-6.75c.87-.87,1.12-2.11,.65-3.24-.47-1.13-1.52-1.84-2.75-1.85h-2.02s0-4.03,0-4.03c.01-1.67-1.36-3-3.02-3h-3.98c-1.66,0-3,1.34-3,3v4s-1.87,0-1.87,0c-1.17,0-2.3,.61-2.81,1.66-.57,1.18-.34,2.51,.54,3.4l6.29,6.8c.77,.77,1.79,1.16,2.81,1.16s2.03-.39,2.81-1.16Z"/></svg>

<?xml version="1.0" encoding="UTF-8" standalone="no"?>
<svg
   id="Layer_1"
   data-name="Layer 1"
   viewBox="0 0 24 24.009999"
   width="512"
   height="512.21332"
   version="1.1"
   sodipodi:docname="updater.svg"
   inkscape:export-filename="updater.png"
   inkscape:export-xdpi="96"
   inkscape:export-ydpi="96"
   xmlns:inkscape="http://www.inkscape.org/namespaces/inkscape"
   xmlns:sodipodi="http://sodipodi.sourceforge.net/DTD/sodipodi-0.dtd"
   xmlns="http://www.w3.org/2000/svg"
   xmlns:svg="http://www.w3.org/2000/svg">
  <defs
     id="defs1" />
  <sodipodi:namedview
     id="namedview1"
     pagecolor="#ffffff"
     bordercolor="#000000"
     borderopacity="0.25"
     inkscape:showpageshadow="2"
     inkscape:pageopacity="0.0"
     inkscape:pagecheckerboard="0"
     inkscape:deskcolor="#d1d1d1">
    <inkscape:page
       x="0"
       y="0"
       width="24"
       height="24.009998"
       id="page2"
       margin="0"
       bleed="0" />
  </sodipodi:namedview>
  <path
     d="M 23,24.01 H 1 c -0.55,0 -1,-0.45 -1,-1 0,-0.55 0.45,-1 1,-1 h 22 c 0.55,0 1,0.45 1,1 0,0.55 -0.45,1 -1,1 z m -8.23,-5.14 c 0,0 6.35,-6.75 6.35,-6.75 0.87,-0.87 1.12,-2.11 0.65,-3.24 C 21.3,7.75 20.25,7.04 19.02,7.03 H 17 C 17,7.03 17,3 17,3 17.01,1.33 15.64,0 13.98,0 H 10 C 8.34,0 7,1.34 7,3 V 7 C 7,7 5.13,7 5.13,7 3.96,7 2.83,7.61 2.32,8.66 1.75,9.84 1.98,11.17 2.86,12.06 l 6.29,6.8 c 0.77,0.77 1.79,1.16 2.81,1.16 1.02,0 2.03,-0.39 2.81,-1.16 z"
     id="path1"
     style="fill:#ffffff" />
</svg>
